src/assets/icons/connect.svg

<svg width="97" height="33" viewBox="0 0 97 33" fill="none" xmlns="http://www.w3.org/2000/svg"><g filter="url(#filter0_d)"><rect width="89" height="25" rx="3" transform="matrix(1 0 0 -1 4 25)" fill="url(#paint0_linear)"></rect><rect x="1" y="-1" width="87" height="23" rx="2" transform="matrix(1 0 0 -1 4 23)" stroke="url(#paint1_linear)" stroke-width="2"></rect></g><path d="M49.4492 12.9697C49.3701 13.6465 49.1196 14.1694 48.6978 14.5386C48.2788 14.9048 47.7207 15.0879 47.0234 15.0879C46.2676 15.0879 45.6611 14.8169 45.2041 14.2749C44.75 13.7329 44.5229 13.0078 44.5229 12.0996V11.4844C44.5229 10.8896 44.6284 10.3667 44.8394 9.91553C45.0532 9.46436 45.355 9.11865 45.7446 8.87842C46.1343 8.63525 46.5854 8.51367 47.0981 8.51367C47.7778 8.51367 48.3228 8.7041 48.7329 9.08496C49.1431 9.46289 49.3818 9.9873 49.4492 10.6582H48.6011C48.5278 10.1484 48.3682 9.7793 48.1221 9.55078C47.8789 9.32227 47.5376 9.20801 47.0981 9.20801C46.5591 9.20801 46.1357 9.40723 45.8281 9.80566C45.5234 10.2041 45.3711 10.771 45.3711 11.5063V12.126C45.3711 12.8203 45.5161 13.3726 45.8062 13.7827C46.0962 14.1929 46.502 14.3979 47.0234 14.3979C47.4922 14.3979 47.8511 14.2925 48.1001 14.0815C48.3521 13.8677 48.519 13.4971 48.6011 12.9697H49.4492ZM50.2622 12.5786C50.2622 12.1128 50.353 11.6938 50.5347 11.3218C50.7192 10.9497 50.9741 10.6626 51.2993 10.4604C51.6274 10.2583 52.001 10.1572 52.4199 10.1572C53.0674 10.1572 53.5903 10.3813 53.9888 10.8296C54.3901 11.2778 54.5908 11.874 54.5908 12.6182V12.6753C54.5908 13.1382 54.5015 13.5542 54.3228 13.9233C54.147 14.2896 53.8936 14.5752 53.5625 14.7803C53.2344 14.9854 52.8564 15.0879 52.4287 15.0879C51.7842 15.0879 51.2612 14.8638 50.8599 14.4155C50.4614 13.9673 50.2622 13.374 50.2622 12.6357V12.5786ZM51.0796 12.6753C51.0796 13.2026 51.2012 13.626 51.4443 13.9453C51.6904 14.2646 52.0186 14.4243 52.4287 14.4243C52.8418 14.4243 53.1699 14.2632 53.4131 13.9409C53.6562 13.6157 53.7778 13.1616 53.7778 12.5786C53.7778 12.0571 53.6533 11.6353 53.4043 11.313C53.1582 10.9878 52.8301 10.8252 52.4199 10.8252C52.0186 10.8252 51.6948 10.9849 51.4487 11.3042C51.2026 11.6235 51.0796 12.0806 51.0796 12.6753ZM56.3794 10.2451L56.4058 10.8428C56.769 10.3857 57.2437 10.1572 57.8296 10.1572C58.8345 10.1572 59.3413 10.7241 59.3501 11.8579V15H58.5371V11.8535C58.5342 11.5107 58.4551 11.2573 58.2998 11.0933C58.1475 10.9292 57.9087 10.8472 57.5835 10.8472C57.3198 10.8472 57.0884 10.9175 56.8892 11.0581C56.6899 11.1987 56.5347 11.3833 56.4233 11.6118V15H55.6104V10.2451H56.3794ZM61.3452 10.2451L61.3716 10.8428C61.7349 10.3857 62.2095 10.1572 62.7954 10.1572C63.8003 10.1572 64.3071 10.7241 64.3159 11.8579V15H63.5029V11.8535C63.5 11.5107 63.4209 11.2573 63.2656 11.0933C63.1133 10.9292 62.8745 10.8472 62.5493 10.8472C62.2856 10.8472 62.0542 10.9175 61.855 11.0581C61.6558 11.1987 61.5005 11.3833 61.3892 11.6118V15H60.5762V10.2451H61.3452ZM67.5151 15.0879C66.8706 15.0879 66.3462 14.877 65.9419 14.4551C65.5376 14.0303 65.3354 13.4634 65.3354 12.7544V12.605C65.3354 12.1333 65.4248 11.7129 65.6035 11.3438C65.7852 10.9717 66.0371 10.6816 66.3594 10.4736C66.6846 10.2627 67.0361 10.1572 67.4141 10.1572C68.0322 10.1572 68.5127 10.3608 68.8555 10.7681C69.1982 11.1753 69.3696 11.7583 69.3696 12.5171V12.8555H66.1484C66.1602 13.3242 66.2964 13.7036 66.5571 13.9937C66.8208 14.2808 67.1548 14.4243 67.5591 14.4243C67.8462 14.4243 68.0894 14.3657 68.2886 14.2485C68.4878 14.1313 68.6621 13.9761 68.8115 13.7827L69.3081 14.1694C68.9097 14.7817 68.312 15.0879 67.5151 15.0879ZM67.4141 10.8252C67.0859 10.8252 66.8105 10.9453 66.5879 11.1855C66.3652 11.4229 66.2275 11.7568 66.1748 12.1875H68.5566V12.126C68.5332 11.7129 68.4219 11.3936 68.2227 11.168C68.0234 10.9395 67.7539 10.8252 67.4141 10.8252ZM72.2217 14.4243C72.5117 14.4243 72.7651 14.3364 72.9819 14.1606C73.1987 13.9849 73.3188 13.7651 73.3423 13.5015H74.1113C74.0967 13.7739 74.0029 14.0332 73.8301 14.2793C73.6572 14.5254 73.4258 14.7217 73.1357 14.8682C72.8486 15.0146 72.5439 15.0879 72.2217 15.0879C71.5742 15.0879 71.0586 14.8726 70.6748 14.4419C70.2939 14.0083 70.1035 13.4165 70.1035 12.6665V12.5303C70.1035 12.0674 70.1885 11.6558 70.3584 11.2954C70.5283 10.9351 70.7715 10.6553 71.0879 10.4561C71.4072 10.2568 71.7837 10.1572 72.2173 10.1572C72.7505 10.1572 73.1929 10.3169 73.5444 10.6362C73.8989 10.9556 74.0879 11.3701 74.1113 11.8799H73.3423C73.3188 11.5723 73.2017 11.3203 72.9907 11.124C72.7827 10.9248 72.5249 10.8252 72.2173 10.8252C71.8042 10.8252 71.4834 10.9746 71.2549 11.2734C71.0293 11.5693 70.9165 11.9985 70.9165 12.561V12.7148C70.9165 13.2627 71.0293 13.6846 71.2549 13.9805C71.4805 14.2764 71.8027 14.4243 72.2217 14.4243ZM76.1284 9.09375V10.2451H77.0161V10.8735H76.1284V13.8223C76.1284 14.0127 76.168 14.1562 76.2471 14.2529C76.3262 14.3467 76.4609 14.3936 76.6514 14.3936C76.7451 14.3936 76.874 14.376 77.0381 14.3408V15C76.8242 15.0586 76.6162 15.0879 76.4141 15.0879C76.0508 15.0879 75.7769 14.978 75.5923 14.7583C75.4077 14.5386 75.3154 14.2266 75.3154 13.8223V10.8735H74.4497V10.2451H75.3154V9.09375H76.1284Z" fill="white"></path><rect x="21.25" y="6.25" width="12.5" height="12.5" stroke="white" stroke-width="0.5"></rect><rect x="27.25" y="10.25" width="6.5" height="4.5" stroke="white" stroke-width="0.5"></rect><circle cx="29.5" cy="12.5" r="0.5" fill="white"></circle><defs><filter id="filter0_d" x="0" y="0" width="97" height="33" filterUnits="userSpaceOnUse" color-interpolation-filters="sRGB"><feFlood flood-opacity="0" result="BackgroundImageFix"></feFlood><feColorMatrix in="SourceAlpha" type="matrix" values="0 0 0 0 0 0 0 0 0 0 0 0 0 0 0 0 0 0 127 0" result="hardAlpha"></feColorMatrix><feOffset dy="4"></feOffset><feGaussianBlur stdDeviation="2"></feGaussianBlur><feColorMatrix type="matrix" values="0 0 0 0 0 0 0 0 0 0 0 0 0 0 0 0 0 0 0.25 0"></feColorMatrix><feBlend mode="normal" in2="BackgroundImageFix" result="effect1_dropShadow"></feBlend><feBlend mode="normal" in="SourceGraphic" in2="effect1_dropShadow" result="shape"></feBlend></filter><linearGradient id="paint0_linear" x1="0" y1="13" x2="89" y2="13" gradientUnits="userSpaceOnUse"><stop stop-color="#C834F7"></stop><stop offset="1" stop-color="#4076db"></stop></linearGradient><linearGradient id="paint1_linear" x1="86.0152" y1="20.2128" x2="3.11029" y2="3.62782" gradientUnits="userSpaceOnUse"><stop stop-color="#4076db"></stop><stop offset="1" stop-color="#C834F7"></stop></linearGradient></defs></svg>

<svg id="Layer_1" data-name="Layer 1" xmlns="http://www.w3.org/2000/svg" viewBox="0 0 89 25"><defs><style>.cls-1{fill:#004baf;}.cls-2{fill:#fff;}.cls-3{fill:none;stroke:#fff;stroke-width:0.5px;}</style></defs><rect class="cls-1" width="89" height="25" rx="3"/><path class="cls-2" d="M49.45,13a2.37,2.37,0,0,1-.75,1.57,2.5,2.5,0,0,1-1.68.55,2.26,2.26,0,0,1-1.82-.82,3.28,3.28,0,0,1-.68-2.17v-.62a3.65,3.65,0,0,1,.32-1.56,2.3,2.3,0,0,1,.9-1,2.56,2.56,0,0,1,1.36-.37,2.3,2.3,0,0,1,1.63.57,2.41,2.41,0,0,1,.72,1.58H48.6a1.79,1.79,0,0,0-.48-1.11,1.41,1.41,0,0,0-1-.34,1.52,1.52,0,0,0-1.27.6,2.69,2.69,0,0,0-.46,1.7v.62a2.81,2.81,0,0,0,.44,1.65A1.4,1.4,0,0,0,47,14.4a1.64,1.64,0,0,0,1.08-.32A1.75,1.75,0,0,0,48.6,13Zm.81-.39a2.84,2.84,0,0,1,.27-1.26,2.08,2.08,0,0,1,.77-.86,2.11,2.11,0,0,1,1.12-.3,2,2,0,0,1,1.57.67,2.58,2.58,0,0,1,.6,1.79v.06a2.79,2.79,0,0,1-.27,1.24,1.93,1.93,0,0,1-.76.86,2.19,2.19,0,0,1-2.7-.36,2.59,2.59,0,0,1-.6-1.78Zm.82.1A2.08,2.08,0,0,0,51.44,14a1.21,1.21,0,0,0,1,.47,1.16,1.16,0,0,0,1-.48,2.18,2.18,0,0,0,.37-1.36,2,2,0,0,0-.38-1.27,1.16,1.16,0,0,0-1-.48,1.15,1.15,0,0,0-1,.47A2.2,2.2,0,0,0,51.08,12.68Zm5.3-2.43,0,.59a1.73,1.73,0,0,1,1.42-.68c1,0,1.51.56,1.52,1.7V15h-.81V11.85a1.11,1.11,0,0,0-.24-.76,1,1,0,0,0-.72-.24,1.17,1.17,0,0,0-.69.21,1.4,1.4,0,0,0-.47.55V15h-.81V10.25Zm5,0,0,.59a1.75,1.75,0,0,1,1.43-.68c1,0,1.51.56,1.52,1.7V15H63.5V11.85a1.11,1.11,0,0,0-.23-.76,1,1,0,0,0-.72-.24,1.2,1.2,0,0,0-.7.21,1.46,1.46,0,0,0-.46.55V15h-.81V10.25Zm6.17,4.84a2.1,2.1,0,0,1-1.58-.63,2.41,2.41,0,0,1-.6-1.71V12.6a2.84,2.84,0,0,1,.26-1.26,2.23,2.23,0,0,1,.76-.87,1.89,1.89,0,0,1,1-.31,1.8,1.8,0,0,1,1.45.61,2.67,2.67,0,0,1,.51,1.75v.34H66.15A1.7,1.7,0,0,0,66.56,14a1.27,1.27,0,0,0,1,.43,1.39,1.39,0,0,0,.73-.17,1.78,1.78,0,0,0,.52-.47l.5.39A2,2,0,0,1,67.52,15.09Zm-.11-4.26a1.08,1.08,0,0,0-.82.36,1.77,1.77,0,0,0-.42,1h2.39v-.06a1.55,1.55,0,0,0-.34-1A1,1,0,0,0,67.41,10.83Zm4.81,3.59a1.13,1.13,0,0,0,.76-.26.9.9,0,0,0,.36-.66h.77a1.48,1.48,0,0,1-.28.78,1.81,1.81,0,0,1-.69.59,2.11,2.11,0,0,1-.92.22,2,2,0,0,1-1.55-.65,2.58,2.58,0,0,1-.57-1.77v-.14a2.85,2.85,0,0,1,.26-1.23,1.93,1.93,0,0,1,.73-.84,2.07,2.07,0,0,1,1.13-.3,1.88,1.88,0,0,1,1.32.48,1.67,1.67,0,0,1,.57,1.24h-.77a1.11,1.11,0,0,0-.35-.76,1.07,1.07,0,0,0-.77-.29,1.14,1.14,0,0,0-1,.44,2.16,2.16,0,0,0-.33,1.29v.15A2.11,2.11,0,0,0,71.25,14,1.14,1.14,0,0,0,72.22,14.42Zm3.91-5.33v1.16H77v.62h-.89v3a.65.65,0,0,0,.12.43.48.48,0,0,0,.4.14,1.65,1.65,0,0,0,.39-.05V15a2.34,2.34,0,0,1-.63.09,1,1,0,0,1-.82-.33,1.44,1.44,0,0,1-.27-.94v-3h-.87v-.62h.87V9.09Z" transform="translate(-4)"/><rect class="cls-3" x="17.25" y="6.25" width="12.5" height="12.5"/><rect class="cls-3" x="23.25" y="10.25" width="6.5" height="4.5"/><circle class="cls-2" cx="25.5" cy="12.5" r="0.5"/></svg>
